packages/foundations/assets/icons/functional/images/devices/printer_24.svg

<svg width="24" height="24" viewBox="0 0 24 24" fill="none" xmlns="http://www.w3.org/2000/svg">
<g clip-path="url(#clip0_185_776)">
<path fill-rule="evenodd" clip-rule="evenodd" d="M16.0281 2C17.1054 2 17.9954 2.88992 17.9954 3.99059V6.00461H19.0024C20.6417 6.00461 22 7.33954 22 9.00235V14.9976C22 16.6605 20.6417 17.9954 19.0024 17.9954H17.9954V20.0094C17.9954 21.1101 17.1054 22 16.0281 22H7.97187C6.89463 22 6.00461 21.1101 6.00461 20.0094V17.9954H4.99765C3.35826 17.9954 2 16.6605 2 14.9976V9.00235C2 7.33954 3.35826 6.00461 4.99765 6.00461H6.00461V3.99059C6.00461 2.88992 6.89433 2 7.97187 2H16.0281ZM16.0047 16.0047H7.99529V20.0094H16.0047V16.0047ZM19.0024 7.99529H4.99765C4.45903 7.99529 4.01402 8.44031 4.01402 9.00235V14.9976C4.01402 15.5597 4.45903 16.0047 4.99765 16.0047H6.00461C6.00461 14.904 6.8712 13.9907 7.97187 13.9907H16.0281C17.1288 13.9907 17.9954 14.904 17.9954 16.0047H19.0024C19.541 16.0047 19.986 15.5597 19.986 14.9976V9.00235C19.986 8.44031 19.541 7.99529 19.0024 7.99529ZM16.0047 4.01402H7.99529V6.00461H16.0047V4.01402ZM6.00461 11C6.00461 10.4418 6.4517 10 6.99284 10H9.01637C9.55751 10 10.0046 10.4418 10.0046 11C10.0046 11.5581 9.55751 12 9.01637 12H6.99284C6.4517 12 6.00461 11.5581 6.00461 11Z" fill="#1A1C1F"/>
</g>
<defs>
<clipPath id="clip0_185_776">
<rect width="24" height="24" fill="white"/>
</clipPath>
</defs>
</svg>

<svg xmlns="http://www.w3.org/2000/svg" width="24" height="24" fill="none"><g clip-path="url(#a)"><path fill="#1A1C1F" fill-rule="evenodd" d="M16.028 2c1.077 0 1.967.89 1.967 1.99v2.015h1.007A3.003 3.003 0 0 1 22 9.002v5.996a3.003 3.003 0 0 1-2.998 2.997h-1.007v2.014c0 1.101-.89 1.991-1.967 1.991H7.972c-1.077 0-1.967-.89-1.967-1.99v-2.015H4.998A3.003 3.003 0 0 1 2 14.998V9.002a3.003 3.003 0 0 1 2.998-2.997h1.007V3.99C6.005 2.89 6.895 2 7.972 2zm-.023 14.005h-8.01v4.004h8.01zm2.997-8.01H4.998a.995.995 0 0 0-.984 1.007v5.996a.995.995 0 0 0 .984 1.007h1.007c0-1.101.866-2.014 1.967-2.014h8.056c1.1 0 1.967.913 1.967 2.014h1.007a.995.995 0 0 0 .984-1.007V9.002a.995.995 0 0 0-.984-1.007m-2.997-3.981h-8.01v1.99h8.01zM6.005 11c0-.558.447-1 .988-1h2.023c.542 0 .989.442.989 1s-.447 1-.989 1H6.993a.993.993 0 0 1-.988-1" clip-rule="evenodd"/></g><defs><clipPath id="a"><path fill="#fff" d="M0 0h24v24H0z"/></clipPath></defs></svg>
